X:1
T:En sangers bønn
T:En Sangers Bøn
T:Ånders Herre
T:F.A. Reissiger
T:J.S. Welhaven
C:F.A. Reissiger
Z:J.S. Welhaven
%%score [ 1 2 3 4 ]
L:1/8
Q:1/4=84
M:4/4
K:E
V:1 treble-8 nm="T1" snm="T1."
V:2 treble-8 nm="T2"
V:3 bass nm="B1"
V:4 bass nm="B2"
V:1
"^Andante sostenuto"!p!!<(! B2 e2!<)! |!>(! e3 d!>)! c2 B2 | !>!c2 B2!<(! B2 B2!<)! | %3
w: 1.Ån- ders|Her- re, du skal|rå- de for de|
w: 2.La min|San- ger- krans da|slyn- ges hen i|
!>(! B3 A!>)! G2 F2 | G4!mf!!<(! B2 e2!<)! |!>(! e3 d!>)! c2 B2 | !>!c2 B2!<(! B2 (c^^c)!<)! | %7
w: Skat- te du mig|gav. O, men|vis mig og din|Nå- de, når min _|
w: Støv på glem- sels|Kyst, når kun|hist hvor alt for-|yn- ges, Sjæ- lens _|
 d3 d!>(! e2 ^A2!>)! | B4!p! B2 ^B2 | c3!<(! c =d2!<)!"^cresc." c2 | B2 A2!mf!!<(! A2 c2!<)! | %11
w: Sang er stil- net|af: til alt|mer mit hjer- te|ban- ker i u-|
w: Dyb har lut- ret|Røst: når kun|der jeg gri- per|To- nen i det|
 f3 e d2 c2 |!>(! c2 B2!>)! B2 ^B2 |!<(! c4 d4!<)! |"^cresc." (e4 g2) f2 |!f!!>(! (e4 d4)!>)! | %16
w: si- ge- li- ge|Tan- ker ved den|sto- re|Li- * vets|gå- *|
w: sto- re Kvad for|Tro- nen, som til|Him- lens|Har- * per|syn- *|
 !fermata!e4 |] %17
w: te.|
w: ges.|
V:2
!p!!<(! B2 G2!<)! |!>(! A3 A!>)! A2 A2 | !>!^A2 B2!<(! E2 ^E2!<)! |!>(! F3 F!>)! G2 F2 | %4
w: 1.Ån- ders|Her- re, du skal|rå- de for de|Skat- te du mig|
w: 2.La min|San- ger- krans da|slyn- ges hen i|Støv på glem- sels|
 E4!mf!!<(! B2 G2!<)! |!>(! A3 A!>)! A2 A2 | !>!^A2 B2!<(! G2 B2!<)! | B3 B!>(! ^A2 F2!>)! | %8
w: gav. O, men|vis mig og din|Nå- de, når min|Sang er stil- net|
w: Kyst, når kun|hist hvor alt for-|yn- ges, Sjæ- lens|Dyb har lut- ret|
 F4!p! B2 G2 | G3!<(! =B A2!<)!"^cresc." G2 | G2 F2!mf!!<(! A2 c2!<)! | B3 B B2 F2 | %12
w: af: ti alt|mer mit hjer- te|ban- ker i u-|si- ge- li- ge|
w: Røst: når kun|der jeg gri- per|To- nen i det|sto- re Kvad for|
!>(! F2 B2!>)! B2 ^B2 |!<(! c6 ^B2!<)! |"^cresc." c4 c4 |!f!!>(! (B4 A4)!>)! | !fermata!G4 |] %17
w: Tan- ker ved den|sto- re|Li- vets|gå- *|te.|
w: Tro- nen, som til|Him- lens|Har- per|syn- *|ges.|
V:3
!p!!<(! G,2 B,2!<)! |!>(! B,3 B,!>)! A,2 F,2 | !>!^^F,2 G,2!<(! E,2 =D,2!<)! | %3
w: 1.Ån- ders|Her- re, du skal|rå- de for de|
w: 2.La min|San- ger- krans da|slyn- ges hen i|
!>(! C,3 F,!>)! E,2 ^D,2 | E,4!mf!!<(! G,2 E,2!<)! |!>(! F,3 F,!>)! E,2 F,2 | %6
w: Skat- te du mig|gav. O, men|vis mig og din|
w: Støv på glem- sels|Kyst, når kun|hist hvor alt for-|
 !>!^^F,2 G,2!<(! E,2 G,2!<)! | ^F,3 F,!>(! F,2 =E,2!>)! | D,4!p! G,2 F,2 | %9
w: Nå- de, når min|Sang er stil- net|af: til alt|
w: yn- ges, Sjæ- lens|Dyb har lut- ret|Røst: når kun|
 ^E,3!<(! E, F,2!<)!"^cresc." E,2 | F,2 F,2!mf!!<(! F,2 A,2!<)! | A,3 G, A,2 A,2 | %12
w: mer mit hjer- te|ban- ker i u-|si- ge- li- ge|
w: der jeg gri- per|To- nen i det|sto- re Kvad for|
!>(! A,2 A,2!>)! G,2 G,2 |!<(! A,4 G,4!<)! |"^cresc." G,4 A,4 |!f!!>(! (G,4 B,4)!>)! | %16
w: Tan- ker ved den|sto- re|Li- vets|gå- *|
w: Tro- nen, som til|Him- lens|Har- per|syn- *|
 !fermata!B,4 |] %17
w: te.|
w: ges.|
V:4
!p!!<(! E,2 G,2!<)! |!>(! F,3 F,!>)! D,2 D,2 | !>!E,2 E,2!<(! G,,2 G,,2!<)! | %3
w: 1.Ån- ders|Her- re, du skal|tå- de for de|
w: 2.La min|San- ger- krans da|slyn- ges hen i|
!>(! A,,3 A,,!>)! B,,2 B,,2 | E,4!mf!!<(! E,2 E,2!<)! |!>(! B,,3 B,,!>)! C,2 D,2 | %6
w: Skat- te du mig|gav. O, men|vis mig og din|
w: Støv på glem- sels|Kyst, når kun|hist hvor alt for-|
 !>!E,2 E,2!<(! E,2 ^E,2!<)! | ^F,3 F,!>(! F,,2 F,,2!>)! | B,,4!p! E,2 =D,2 | %9
w: Nå- de, når min|Sang er stil- net|af: til alt|
w: yn- ges, sjæ- lens|Dyb har lut- ret|Røst: når kun|
 C,3!<(! C, B,,2!<)!"^cresc." C,2 | F,2 F,2!mf!!<(! F,2 E,2!<)! | D,3 E, F,2 E,2 | %12
w: mer mit hjer- te|ban- ker i u-|si- ge- li- ge|
w: der jeg gri- per|To- nen i det|sto- re Kvad for|
!>(! D,2 D,2!>)! E,2 E,2 |!<(! A,4 G,4!<)! |"^cresc." (C,2 B,,2) A,,4 |!f!!>(! B,,8!>)! | %16
w: Tan- ker ved den|sto- re|Li- * vets|gå-|
w: Tro- nen, som til|Him- lens|Har- * per|syn-|
 !fermata![E,,E,]4 |] %17
w: te.|
w: ges.|

